X: 24321
T: Lough Key
R: slip jig
M: 9/8
K: Gmajor
D|G>AG Bdd cAF|G>AG BdB cAF|G>AG ABB E>FG|1 EFE AGF G2:|2 EDE AGF G2B||
[K:Edor]|:A>GE EDE GAB|d>BA ABd e2g|B>AG BGE E>DE|1 DB,A, A,B,D E2B:|2 DB,A, A,B,D E2||

